client/public/assets/icons/utility/travel_and_places.svg

<?xml version="1.0" encoding="utf-8"?>
<svg version="1.1" id="Layer_1" xmlns="http://www.w3.org/2000/svg" xmlns:xlink="http://www.w3.org/1999/xlink" x="0px" y="0px"
   width="52px" height="52px" viewBox="0 0 52 52" enable-background="new 0 0 52 52" xml:space="preserve">
  <path fill="#FFFFFF" d="M47,21 L42.48,8.84 C41.76,6.52 39.6,5 37.2,5 L14.8,5 C12.4,5 10.24,6.52 9.44,8.84 L5,21 C2.92,21.56 2,23.56 2,25.8 L2,37.4 C2,39.48 4.16,41.28 6,42 L6,46.0334473 C6,47.3444824 6.67423503,48 8.02270508,48 L13.050293,48 C14.3500977,48 15,47.3444824 15,46.0334473 L15,42 L37,42 L37,46.0334473 C37,47.3444824 37.6625977,48 38.987793,48 L44.0212402,48 C45.3404134,48 46,47.3444824 46,46.0334473 L46,41.96 C47.84,41.32 50,39.56 50,37.4 L50,25.8 C50,23.56 49.08,21.56 47,21 Z M11,34 C8.76,34 7,32.24 7,30 C7,27.76 8.76,26 11,26 C13.24,26 15,27.76 15,30 C15,32.24 13.24,34 11,34 Z M27.6,21 L11.76,21 C11.2,21 10.84,20.48 11,20 L14,11 C14.08,10.68 14.289856,10 15,10 L37,10 C37.7802124,10 37.92,10.76 38,11 L41,20 C41.2,20.6424561 40.880127,21 40.08,21 L27.6,21 Z M41,34 C38.76,34 37,32.24 37,30 C37,27.76 38.76,26 41,26 C43.24,26 45,27.76 45,30 C45,32.24 43.24,34 41,34 Z"/>
</svg>

<?xml version="1.0"?><svg xmlns="http://www.w3.org/2000/svg" width="52" height="52" viewBox="0 0 52 52"><path fill="#fff" d="m47 21l-4.5-12.2c-0.7-2.3-2.9-3.8-5.3-3.8h-22.4c-2.4 0-4.6 1.5-5.4 3.8l-4.4 12.2c-2.1 0.6-3 2.6-3 4.8v11.6c0 2.1 2.2 3.9 4 4.6v4c0 1.3 0.7 2 2 2h5.1c1.3 0 1.9-0.7 1.9-2v-4h22v4c0 1.3 0.7 2 2 2h5c1.3 0 2-0.7 2-2v-4c1.8-0.7 4-2.4 4-4.6v-11.6c0-2.2-0.9-4.2-3-4.8z m-36 13c-2.2 0-4-1.8-4-4s1.8-4 4-4 4 1.8 4 4-1.8 4-4 4z m16.6-13h-15.8c-0.6 0-1-0.5-0.8-1l3-9c0.1-0.3 0.3-1 1-1h22c0.8 0 0.9 0.8 1 1l3 9c0.2 0.6-0.1 1-0.9 1h-12.5z m13.4 13c-2.2 0-4-1.8-4-4s1.8-4 4-4 4 1.8 4 4-1.8 4-4 4z"></path></svg>
